X: 60
T: Usłysz me prośby, Boże władze wiecznej,
C: Mikołaj Gomółka
%%abc-version 2.0
%%abcx-abcm2ps-target-version 5.9.1 (29 Sep 2008)
%%abc-creator hum2abc beta
%%abcx-conversion-date 2021/10/04 07:59:10
%%abc-edited-by Anna Matuszewska
%%abcx-initial-encoding-date 2020-02-12
%%humdrum-veritas 825711542
%%humdrum-veritas-data 841829902
%%linebreak <none>
%%barnumbers 0
L: 1/4
M: C|
N: Derived from pl-wn--sd-xvi-qu-273--061_gomolka-mikolaj--uslysz-me-prosby-boze-wladze-wiecznej.krn
%%staves [1 2 3 4]
V: 1
V: 2 clef=alto
V: 3 clef=alto
V: 4 clef=bass
K: F
[V:1] G4d2d2 [I:setbarnb 3][|] 
[V:2] D4G2G2 [|] 
[V:3] G,4B,2B,2 [|] 
[V:4] G,4G,2G,2 [|] 
[V:1] e4d2d4 [|] 
[V:2] G4F2F4 [|] 
[V:3] C4A,2D4 [|] 
[V:4] C,4D,2B,,4 [|] 
[V:1] B2c2B4 [|] 
[V:2] G4F2 [|] 
[V:3] E4D2 [|] 
[V:4] E,2C,2D,2 [|] 
[V:1] A2B2_d2 [|] 
[V:2] E2C2D2F2 [|] 
[V:3] C2C2B,2C2 [|] 
[V:4] E,2F,2B,,2F,2 [|] 
[V:1] A2c2B4 [|] 
[V:2] F2E2D2G2 [|] 
[V:3] D2C2D3E [|] 
[V:4] D,2A,,2B,,2G,,2 [|] 
[V:1] A2B4AG [|] 
[V:2] D2F4E2 [|] 
[V:3] F2>E2D2CB, [|] 
[V:4] D,2B,,4C,2 [|] 
[V:1] ^F2G4F2 [|] 
[V:2] D2C2D4 [|] 
[V:3] A,2G,2A,4 [|] 
[V:4] D,2E,2D,4 [|] 
[V:1] G4A4 [|] 
[V:2] D4F4 [|] 
[V:3] G,4A,3B, [|] 
[V:4] G,,4D,4 [|] 
[V:1] A2A2_B4 [|] 
[V:2] EDEFG4 [|] 
[V:3] C2^C2D4 [|] 
[V:4] A,2A,2G,3F, [|] 
[V:1] c2c2A3B [|] 
[V:2] G2G2C3D [|] 
[V:3] E2E2F4 [|] 
[V:4] E,D,C,2F,4 [|] 
[V:1] ^c2d4c2 [|] 
[V:2] =C2A2>G2A2 [|] 
[V:3] G2F3E/D/ E/F/E [|] 
[V:4] E,2D,>C, B,,/A,,/B,,A,,2 [|] 
[V:1] d2B2B2B2 [|] 
[V:2] =F2^G2G2G2 [|] 
[V:3] D2D2_E2E2 [|] 
[V:4] D,2G,2_E,2E,2 [|] 
[V:1] F2>G2A2zA [|] 
[V:2] A2>G2FEzF [|] 
[V:3] F2>E2D2zD [|] 
[V:4] D,4D,2zD, [|] 
[V:1] BAG2G2F2 [|] 
[V:2] F2E2E2DC [|] 
[V:3] DCB,A,/B,/C2A,2 [|] 
[V:4] D,2E,2C,2D,2 [|] 
[V:1] G8 [|] 
[V:2] B,8 [|] 
[V:3] G,8 [|] 
[V:4] G,,8 [|] 


